pages/images/start-project-back.svg

<svg width="795" height="120" viewBox="0 0 795 120" fill="none" xmlns="http://www.w3.org/2000/svg">
<path d="M80.9581 86H87.5181V21.28H80.9581V48.16H44.1581V21.28H37.5981V86H44.1581V54.4H80.9581V86ZM137.23 67.44L143.87 86H150.91L126.67 21.28H119.31L95.15 86H102.03L108.67 67.44H137.23ZM122.99 27.36L134.99 61.12H110.91L122.99 27.36ZM170.948 56.16C183.748 56.16 187.108 50.88 187.108 50.88V86H193.748V21.28H187.108V36.56C187.108 45.6 181.108 49.68 170.948 49.68C161.108 49.68 154.708 45.6 154.708 36.56V21.28H148.148V39.76C148.148 51.04 158.388 56.16 170.948 56.16ZM243.396 67.44L250.036 86H257.076L232.836 21.28H225.476L201.316 86H208.196L214.836 67.44H243.396ZM229.156 27.36L241.156 61.12H217.076L229.156 27.36ZM312.65 27.6V21.28H251.93V27.6H278.97V86H285.53V27.6H312.65ZM346.724 49.76H326.484V21.28H320.004V86H345.364C360.324 86 366.804 79.68 366.804 67.52C366.804 59.12 359.444 49.76 346.724 49.76ZM346.564 79.68H326.484V56.08H346.404C355.204 56.08 360.324 61.92 360.324 68.48C360.324 76.56 354.724 79.68 346.564 79.68ZM452.264 86H458.824V21.28H408.904V86H415.464V27.6H452.264V86ZM497.016 21.28H470.776V86H477.416V59.12H497.096C510.936 59.12 518.216 49.68 518.216 40.4C518.216 31.12 510.776 21.28 497.016 21.28ZM498.296 52.56H477.416V27.84H498.296C504.536 27.84 511.736 32.08 511.736 40.4C511.736 48.56 504.616 52.56 498.296 52.56ZM555.029 19.92C546.549 19.92 538.949 22.96 533.509 28.48C527.669 34.48 524.549 43.2 524.549 53.6C524.549 74.08 536.469 87.28 555.029 87.28C569.749 87.28 585.509 78.48 585.509 53.6C585.509 32.8 573.509 19.92 555.029 19.92ZM555.029 80.72C543.269 80.72 531.109 73.68 531.109 53.6C531.109 34.16 543.269 26.48 555.029 26.48C566.709 26.48 578.869 33.44 578.869 53.6C578.869 70.96 569.989 80.72 555.029 80.72ZM601.781 27.6H638.741V21.28H595.301V86H638.741V79.76H601.781V54.32L632.901 54.48V48.16H601.781V27.6ZM653.731 57.12V21.28H647.251V86H653.731V66.8L667.011 52.32L690.451 86H698.371L671.491 47.44L695.411 21.28H686.531L653.731 57.12ZM762 27.6V21.28H701.28V27.6H728.32V86H734.88V27.6H762Z" fill="white"/>
</svg>

<svg width="795" height="120" fill="none" xmlns="http://www.w3.org/2000/svg"><path d="M80.958 86h6.56V21.28h-6.56v26.88h-36.8V21.28h-6.56V86h6.56V54.4h36.8V86Zm56.272-18.56L143.87 86h7.04l-24.24-64.72h-7.36L95.15 86h6.88l6.64-18.56h28.56Zm-14.24-40.08 12 33.76h-24.08l12.08-33.76Zm47.958 28.8c12.8 0 16.16-5.28 16.16-5.28V86h6.64V21.28h-6.64v15.28c0 9.04-6 13.12-16.16 13.12-9.84 0-16.24-4.08-16.24-13.12V21.28h-6.56v18.48c0 11.28 10.24 16.4 22.8 16.4Zm72.448 11.28 6.64 18.56h7.04l-24.24-64.72h-7.36L201.316 86h6.88l6.64-18.56h28.56Zm-14.24-40.08 12 33.76h-24.08l12.08-33.76Zm83.494.24v-6.32h-60.72v6.32h27.04V86h6.56V27.6h27.12Zm34.074 22.16h-20.24V21.28h-6.48V86h25.36c14.96 0 21.44-6.32 21.44-18.48 0-8.4-7.36-17.76-20.08-17.76Zm-.16 29.92h-20.08v-23.6h19.92c8.8 0 13.92 5.84 13.92 12.4 0 8.08-5.6 11.2-13.76 11.2Zm105.7 6.32h6.56V21.28h-49.92V86h6.56V27.6h36.8V86Zm44.752-64.72h-26.24V86h6.64V59.12h19.68c13.84 0 21.12-9.44 21.12-18.72s-7.44-19.12-21.2-19.12Zm1.28 31.28h-20.88V27.84h20.88c6.24 0 13.44 4.24 13.44 12.56 0 8.16-7.12 12.16-13.44 12.16Zm56.733-32.64c-8.48 0-16.08 3.04-21.52 8.56-5.84 6-8.96 14.72-8.96 25.12 0 20.48 11.92 33.68 30.48 33.68 14.72 0 30.48-8.8 30.48-33.68 0-20.8-12-33.68-30.48-33.68Zm0 60.8c-11.76 0-23.92-7.04-23.92-27.12 0-19.44 12.16-27.12 23.92-27.12 11.68 0 23.84 6.96 23.84 27.12 0 17.36-8.88 27.12-23.84 27.12Zm46.752-53.12h36.96v-6.32h-43.44V86h43.44v-6.24h-36.96V54.32l31.12.16v-6.32h-31.12V27.6Zm51.95 29.52V21.28h-6.48V86h6.48V66.8l13.28-14.48L690.451 86h7.92l-26.88-38.56 23.92-26.16h-8.88l-32.8 35.84ZM762 27.6v-6.32h-60.72v6.32h27.04V86h6.56V27.6H762Z" fill="#fff"/></svg>
